public/assets/realtime-icon.svg

<svg width="50" height="50" viewBox="0 0 50 50" fill="none" xmlns="http://www.w3.org/2000/svg">
<path d="M48.3 34.83H17.03V46.7H48.3V34.83Z" fill="#A4C352"/>
<path d="M45.34 39.03H36.78V42.48H45.34V39.03Z" fill="#006D68"/>
<path d="M48.3 19.06H17.03V30.93H48.3V19.06Z" fill="#A4C352"/>
<path d="M45.34 23.27H36.78V26.72H45.34V23.27Z" fill="#006D68"/>
<path d="M48.3 3.29999H17.03V15.17H48.3V3.29999Z" fill="#A4C352"/>
<path d="M45.34 7.51001H36.78V10.96H45.34V7.51001Z" fill="#006D68"/>
<path d="M17.03 40.33C25.4965 40.33 32.36 33.4665 32.36 25C32.36 16.5335 25.4965 9.66998 17.03 9.66998C8.56343 9.66998 1.69995 16.5335 1.69995 25C1.69995 33.4665 8.56343 40.33 17.03 40.33Z" fill="#006D68"/>
<path d="M32.36 25C32.36 33.19 25.93 39.89 17.84 40.31C17.57 40.32 17.03 40.33 17.03 40.33V9.66998C17.03 9.66998 17.92 9.68998 18.35 9.72998C26.2 10.4 32.36 16.98 32.36 25Z" fill="#006D68"/>
<path d="M17.03 25V14.4" stroke="white" stroke-width="1.08" stroke-miterlimit="10" stroke-linecap="round"/>
<path d="M9.95996 28.76L17.03 25" stroke="white" stroke-width="1.08" stroke-miterlimit="10" stroke-linecap="round"/>
</svg>

<svg xmlns="http://www.w3.org/2000/svg" width="50" height="50" fill="none" viewBox="0 0 50 50"><path fill="#a4c352" d="M48.3 34.83H17.03V46.7H48.3z"/><path fill="#006d68" d="M45.34 39.03h-8.56v3.45h8.56z"/><path fill="#a4c352" d="M48.3 19.06H17.03v11.87H48.3z"/><path fill="#006d68" d="M45.34 23.27h-8.56v3.45h8.56z"/><path fill="#a4c352" d="M48.3 3.3H17.03v11.87H48.3z"/><path fill="#006d68" d="M45.34 7.51h-8.56v3.45h8.56zM17.03 40.33c8.467 0 15.33-6.863 15.33-15.33S25.497 9.67 17.03 9.67 1.7 16.534 1.7 25s6.863 15.33 15.33 15.33"/><path fill="#006d68" d="M32.36 25c0 8.19-6.43 14.89-14.52 15.31-.27.01-.81.02-.81.02V9.67s.89.02 1.32.06c7.85.67 14.01 7.25 14.01 15.27"/><path stroke="#fff" stroke-linecap="round" stroke-miterlimit="10" stroke-width="1.08" d="M17.03 25V14.4M9.96 28.76 17.03 25"/></svg>
